!!!COM: Music21
!!!OTL: polka_Velvet-Jacket--The
!!!OMV: polka_Velvet-Jacket--The
**kern
*clefG2
*k[f#]
*G:
*M2/4
=1
8bL
16gL
16aJJ
=
32bLLL
32a
32b
32ddJ
16ee
16ddJJ
4ryy
=
16bLL
16g
16a
16gJJ
4ryy
=
16f#LL
16eJ
8eJ
4ryy
=
8aL
16ccL
16eeJJ
4ryy
=
16ddLL
16b
16.g
32bJJk
4ryy
=
16aLL
16ee
16gg
16eeJJ
4ryy
=
16ff#LL
16dd
16dd
16ccJJ
4ryy
!!linebreak:original
=
8bL
16gL
16aJJ
4ryy
=
32bLLL
32a
32b
32ddJ
16ee
16ddJJ
4ryy
=
16bLL
16g
16a
16gJJ
4ryy
=
16f#LL
16eJ
8eJ
4ryy
=
8aL
16ccL
16eeJJ
4ryy
=
16ddLL
16b
16.g
32f#JJk
4ryy
=
16eLL
16cc
16a
16f#JJ
4ryy
=
16aLL
16gJ
8gJ
4ryy
!!linebreak:original
=||
16.ccLL
32eeK
16gg
16gJJ
4ryy
=
32bLLL
32a
32b
32ccJ
16dd
16bJJ
4ryy
=
16aLL
16cc
16b
16f#JJ
4ryy
=
16aLL
16gJ
8bJ
4ryy
=
16.ccLL
32eeK
16gg
16ddJJ
4ryy
=
16ddLL
16gg
16.gg
32ff#JJk
4ryy
=
16eeLL
16cc#X
16ee
16ggJJ
4ryy
!!linebreak:original
=
16ff#LL
16dd
16dd
16bJJ
4ryy
=
16.ccLL
32eeK
16gg
16gJJ
4ryy
=
32bLLL
32a
32b
32ccJ
16dd
16bJJ
4ryy
=
16g#XLL
16b
16ee
16bJJ
4ryy
=
16ddLL
16cc
16cc
16bJJ
4ryy
=
16.aLL
32bL
32cc
32bJ
16aJJ
4ryy
=
16.gLL
32aL
32b
32aJ
16gJJ
4ryy
!!linebreak:original
=
8f#L
16eL
16f#JJ
4ryy
=
16aLL
16gJ
8gJ
4ryy
=
*-
